X: 21697
T: Kilty Cameron's Tiddlers
R: jig
M: 6/8
K: Gmajor
|:DGD GB/c/d|cBG dBG|Ecc cBc|ABG FED|
DGD GB/c/d|cBG dBG|EGc BGE|DFA G3:|
|:[B,B]DG BAG|[Cc]EG cBA|DD/F/A d^cd|ed^c d2 =c|
BAB GBd|cBc EAG|FEF Ddc|BcA G3:|

